X:1
T:Title
%%score 1 { 2 | 3 }
L:1/8
Q:1/4=93
M:3/4
K:F
V:1 treble nm="Grand Piano, Soprano"
V:2 bass nm="Choir Pad, Bass"
V:3 bass 
V:1
 A_A =A3 F | GA G2 F2 | FF B3 B | FG A4 | FG A3 _A | Ac c2 B2 | BB A3 F | AG F4 | %8
w: By~Jesse~B.~Hardin,~1914 * * *||||||||
 [Fc][Fc] [Fd]3 [Fd] | [FB][Fd] [Fc]2 [FA]2 | [FA][FA] [DG]3 [Dc] | [D=B][FB] [Ec]4 | %12
w: ||||
 [Fc][EB] [FA]3 [EA] | [EG][FA] [FB]2 [FB]2 | [FB][FB] [FA]3 F | [FA][CG] [CF]4- | [CF]4 z2 |] %17
w: |||||
V:2
 C=B, C3 A, | B,C B,2 A,2 | CC D3 D | D^C =C4 | A,B, C3 =B, | C[K:treble]_E =E2 D2 | %6
 D^C =C3[K:bass] A, | CB, A,4 | A,A, B,3 B, | B,B, A,2[K:treble] C2 | CC G,3 G, | G,G, G,4 | %12
 A,G, F,3[K:treble] C | C_E E2 D2 | D^C =C3[K:bass] A, | CB, A,4- | A,4 z2 |] %17
V:3
 z6 | z6 | z6 | z6 | z6 | z6 | z6 | z6 | F,F, B,,3 B,, | B,,B,, F,2 F,2 | F,F, z2 z2 | z2 C,4 | %12
 F,C, z2 z F, | C,F, B,,2 B,,2 | B,,=B,, C,3 C, | C,C, [F,,F,]4- | [F,,F,]4 z2 |] %17

